svg/SJJB-OpenStreetMapIcons/poi/cave.svg

<?xml version="1.0" encoding="UTF-8" standalone="no"?>
<!-- Created with Inkscape (http://www.inkscape.org/) -->

<svg
   xmlns:dc="http://purl.org/dc/elements/1.1/"
   xmlns:cc="http://creativecommons.org/ns#"
   xmlns:rdf="http://www.w3.org/1999/02/22-rdf-syntax-ns#"
   xmlns:svg="http://www.w3.org/2000/svg"
   xmlns="http://www.w3.org/2000/svg"
   xmlns:sodipodi="http://sodipodi.sourceforge.net/DTD/sodipodi-0.dtd"
   xmlns:inkscape="http://www.inkscape.org/namespaces/inkscape"
   version="1.0"
   width="580"
   height="580"
   id="svg2"
   sodipodi:version="0.32"
   inkscape:version="0.47 r22583"
   sodipodi:docname="poi_cave.svg"
   inkscape:output_extension="org.inkscape.output.svg.inkscape">
  <metadata
     id="metadata10">
    <rdf:RDF>
      <cc:Work
         rdf:about="">
        <dc:format>image/svg+xml</dc:format>
        <dc:type
           rdf:resource="http://purl.org/dc/dcmitype/StillImage" />
        <cc:license
           rdf:resource="http://web.resource.org/cc/PublicDomain" />
        <dc:language>en</dc:language>
        <dc:title />
      </cc:Work>
    </rdf:RDF>
  </metadata>
  <sodipodi:namedview
     inkscape:window-height="1003"
     inkscape:window-width="1400"
     inkscape:pageshadow="2"
     inkscape:pageopacity="0.0"
     guidetolerance="10.0"
     gridtolerance="10.0"
     objecttolerance="10.0"
     borderopacity="1.0"
     bordercolor="#666666"
     pagecolor="#ffffff"
     id="base"
     showgrid="false"
     inkscape:zoom="1"
     inkscape:cx="384.30816"
     inkscape:cy="205.27842"
     inkscape:window-x="0"
     inkscape:window-y="20"
     inkscape:current-layer="svg2"
     showguides="true"
     inkscape:guide-bbox="true"
     inkscape:window-maximized="0" />
  <defs
     id="defs4">
    <inkscape:perspective
       sodipodi:type="inkscape:persp3d"
       inkscape:vp_x="0 : 290 : 1"
       inkscape:vp_y="0 : 1000 : 0"
       inkscape:vp_z="580 : 290 : 1"
       inkscape:persp3d-origin="290 : 193.33333 : 1"
       id="perspective12" />
    <style
       type="text/css"
       id="style6">
   
    .fil0 {fill:#EF7900}
   
  </style>
    <inkscape:perspective
       id="perspective6807"
       inkscape:persp3d-origin="29.116032 : 19.410688 : 1"
       inkscape:vp_z="58.232063 : 29.116032 : 1"
       inkscape:vp_y="0 : 1000 : 0"
       inkscape:vp_x="0 : 29.116032 : 1"
       sodipodi:type="inkscape:persp3d" />
    <inkscape:perspective
       id="perspective6954"
       inkscape:persp3d-origin="290 : 193.33333 : 1"
       inkscape:vp_z="580 : 290 : 1"
       inkscape:vp_y="0 : 1000 : 0"
       inkscape:vp_x="0 : 290 : 1"
       sodipodi:type="inkscape:persp3d" />
    <inkscape:perspective
       id="perspective2541"
       inkscape:persp3d-origin="240 : 160 : 1"
       inkscape:vp_z="480 : 240 : 1"
       inkscape:vp_y="0 : 1000 : 0"
       inkscape:vp_x="0 : 240 : 1"
       sodipodi:type="inkscape:persp3d" />
    <inkscape:perspective
       id="perspective2750"
       inkscape:persp3d-origin="215 : 143.33333 : 1"
       inkscape:vp_z="430 : 215 : 1"
       inkscape:vp_y="0 : 1000 : 0"
       inkscape:vp_x="0 : 215 : 1"
       sodipodi:type="inkscape:persp3d" />
    <inkscape:perspective
       id="perspective2830"
       inkscape:persp3d-origin="0.5 : 0.33333333 : 1"
       inkscape:vp_z="1 : 0.5 : 1"
       inkscape:vp_y="0 : 1000 : 0"
       inkscape:vp_x="0 : 0.5 : 1"
       sodipodi:type="inkscape:persp3d" />
  </defs>
  <g
     id="g1327">
    <path
       d="M 66.275,1.768 C 24.94,1.768 1.704,23.139 1.704,66.804 L 1.704,516.927 C 1.704,557.771 22.598,579.156 63.896,579.156 L 515.92,579.156 C 557.227,579.156 578.149,558.84 578.149,516.927 L 578.149,66.804 C 578.149,24.203 557.227,1.768 514.627,1.768 C 514.624,1.768 66.133,1.625 66.275,1.768 z"
       style="fill:#111111;stroke:#eeeeee;stroke-width:3.40799999"
       id="path1329" />
  </g>
  <path
     style="fill:#ffffff;fill-opacity:1"
     d="m 34.702986,408.13437 c 2.367196,-5.48093 32.404879,-47.87543 66.750284,-94.2099 49.25528,-66.44891 74.61409,-89.47895 120.04961,-109.0248 71.12554,-30.59742 142.32874,-32.35525 168.26002,-4.15402 61.33558,66.70455 124.63054,142.87846 142.85807,171.92632 25.68601,40.93369 12.60173,60.07407 -14.50984,21.22601 C 507.42352,378.58371 477.4635,342.01325 451.53328,312.63007 340.43961,186.74287 340.10029,186.61322 236.90791,230.57389 186.18922,252.18048 166.47754,270.06043 123.61005,333.34337 95.06701,375.47997 62.417798,411.78794 51.05624,414.0276 39.69479,416.26738 32.3358,413.61508 34.702986,408.13437 z"
     id="path2838"
     sodipodi:nodetypes="csssssssssc" />
  <path
     sodipodi:nodetypes="cssscccc"
     id="path3593"
     d="m 34.702986,408.13437 c 2.367196,-5.48093 32.404879,-47.87543 66.750284,-94.2099 49.25528,-66.44891 74.61409,-89.47895 120.04961,-109.0248 71.12554,-30.59742 142.32874,-32.35525 168.26002,-4.15402 61.33558,66.70455 124.63054,142.87846 142.85807,171.92632 34.40213,55.71502 -22.68994,62.23235 -174.08769,65.9581 -80.61454,2.31281 -85.24178,0.87361 -168.92323,1.7133 -39.07364,-1.12238 -156.361399,-19.74053 -154.907064,-32.209 z"
     style="opacity:0.1;fill:#ffffff;fill-opacity:1" />
  <path
     sodipodi:nodetypes="cssssc"
     id="path3638"
     d="m 150.97846,415.18101 c 0,-32.36715 90.19166,-134.76949 118.69935,-134.76949 45.60596,0 92.84717,28.28822 127.25562,76.20114 20.30607,28.27572 36.92016,54.52123 36.92016,58.32343 0,3.80207 -63.64691,6.91299 -141.43757,6.91299 -77.79065,0 -141.43756,-3.00059 -141.43756,-6.66807 z"
     style="fill:#ffffff;fill-opacity:1" />
</svg>

<svg xmlns="http://www.w3.org/2000/svg" viewBox="0 0 580 580"><path d="m66.28 1.768c-41.34 0-64.57 21.371-64.57 65.04v450.12c0 40.844 20.894 62.23 62.19 62.23h452.02c41.31 0 62.23-20.316 62.23-62.23v-450.12c0-42.601-20.922-65.04-63.52-65.04-.003 0-448.49-.143-448.35 0z" fill="#111" stroke="#eee" stroke-width="3.408"/><g fill="#fff"><path d="m34.703 408.13c2.367-5.481 32.405-47.875 66.75-94.21 49.26-66.45 74.61-89.48 120.05-109.02 71.13-30.597 142.33-32.355 168.26-4.154 61.34 66.7 124.63 142.88 142.86 171.93 25.686 40.934 12.602 60.07-14.51 21.23-10.688-15.314-40.648-51.885-66.58-81.27-111.09-125.89-111.43-126.02-214.63-82.06-50.719 21.607-70.43 39.487-113.3 102.77-28.543 42.14-61.19 78.44-72.55 80.68-11.361 2.24-18.72-.413-16.353-5.893"/><path d="m34.703 408.13c2.367-5.481 32.405-47.875 66.75-94.21 49.26-66.45 74.61-89.48 120.05-109.02 71.13-30.597 142.33-32.355 168.26-4.154 61.34 66.7 124.63 142.88 142.86 171.93 34.402 55.715-22.69 62.23-174.09 65.958-80.61 2.313-85.24.874-168.92 1.713-39.07-1.122-156.36-19.741-154.91-32.21" opacity=".1"/><path d="m150.98 415.18c0-32.367 90.19-134.77 118.7-134.77 45.606 0 92.85 28.29 127.26 76.2 20.306 28.28 36.92 54.52 36.92 58.32 0 3.802-63.65 6.913-141.44 6.913-77.79 0-141.44-3-141.44-6.668"/></g></svg>
